X:1
T:Interstellar
T:Interstellar
T:for Lowbrass Ensemble
T:Hans Zimmer
T:Arr. Jacob Graham from Patrik Pietschmann's Piano Solo 
C:Hans Zimmer
Z:Arr. Jacob Graham
%%score 1 2 3 4
L:1/8
Q:1/4=100
M:3/4
K:C
V:1 bass nm="Trombone" snm="Tbn."
V:2 bass nm="Trombone" snm="Tbn."
V:3 bass nm="Euphonium" snm="Euph."
V:4 bass nm="Tuba" snm="Tba."
V:1
 z6 | z6 | z6 | z6 |!p! A,6 | B,6- | B,6 | A,2 B,2 C2 | B,2 A,2 B,2 | C6 | B,6- | B,6 | A,4 E2 | %13
 C6 | B,6- | B,6 | A,2 E2 C2 | B,2 A,2 B,2 | C6 | B,6- | B,6 | A,2 E2 C2 | B,2 A,2 B,2 | C6 | D6 | %25
 E6 | A,B, CB, A,C | B,A, G,A, B,G, | B,A, G,A, B,G, | A,C B,D CA, | B,G, A,C B,D | CD CB, A,C | %32
 B,A, G,A, B,G, | B,A, G,E B,G, | A,B, CB, A,C | B,A, G,A, B,G, | B,A, G,E B,G, | A,C B,D CA, | %38
 B,G, A,C B,D | CD CB, A,C | B,A, G,A, B,G, | B,A, G,E CG, | A,B, CB, EB, | CD CB, A,C | %44
 B,A, G,A, B,G, | B,A, G,E CG, | A,C EB, CA, | B,G, A,C B,D | CB, A,B, CA, | B,A, G,A, B,G, | %50
 B,A, G,E CG, | A,C EB, CA, | B,G, A,C B,D | CB, A,B, CA, | DC B,C DB, |"^4 bar Rit." E z E z E z | %56
 E z E z E z | E2 E2 E2 | E2 E2 E2 |!mf! A,2 E2 z2 | A,2 E2 z2 | B,2 E2 z2 | B,2 E2 z2 | C2 E2 z2 | %64
 C2 E2 z2 | D2 E2 z2 | D2 E2 B,2 | A,E EE z E | A,E EE z E | B,E EE z E | B,E EE z E | CE EE z E | %72
 CE EE z E | DE EE z E | DE EE z E |!mp! (B,/C/B,/C/ B,/C/B,/C/ B,/C/B,/C/ | %76
 B,/C/B,/C/ B,/C/B,/C/ B,/C/B,/C/ | B,/C/B,/C/ B,/C/B,/C/ B,/C/B,/C/ | %78
 B,/C/B,/C/ B,/C/B,/C/ B,/C/B,/C/ | B,/C/B,/C/ B,/C/B,/C/ B,/C/B,/C/) | A,2 E2 z2 | A,2 E2 z2 | %82
 B,2 E2 z2 | B,2 E2 z2 | C2 E2 z2 | C2 E2 z2 | D2 E2 z2 | D2 E2 B,2 | A,2 E2 z2 | A,2 E2 z2 | %90
 B,2 E2 z2 | B,2 E2 z2 | C2 E2 z2 | C2 E2 z2 | D2 E2 z2 | D2 E2 B,2 | A,E, C,E, F,C, | %97
 A,E, C,E, F,C, | B,E, D,E, G,D, | B,E, D,E, G,D, | CA, E,C, E,C, | CA, E,C, E,C, | z2 E2 z2 | %103
 z2 E2 z2 | z2 E2 z2 | z2 E2 z2 | z2 E2 z2 | z2 E2 z2 | z2 E2 z2 | z2 E2 z2 | z6 | z6 | z6 | z6 | %114
 z6 | z6 | z6 | z6 |!p! C,D, F,E, (D,/E,/F,/E,/) | D,E, A,F, (F,/G,/A,/B,/) | %120
 CB, G,A, (B,/G,/A,/G,/) | A,B, DA, (A,/B,/D/B,/) | CB, CD (C/B,/C/A,/) | B,C A,B, (B,/C/B,/C/) | %124
 A,C B,C (C/B,/C/D/) | EC DC (D/C/B,/A,/) | B,6- | B,6 |!p! A,E, C,E, A,E, | A,E, EE, A,E, | %130
 B,E, EE, B,E, | B,E, EE, B,E, | CE, EE, CE, | CE, EE, CE, | B,E, EE, B,E, | B,E, EE, B,E, | %136
 A,E, EE, A,E, | A,E, EE, A,E, | B,E, EE, B,E, | B,E, EE, B,E, | CE, EE, CE, | CE, EE, CE, | %142
 B,G, D,E, B,E, | B,E, EE, B,E, | A,E, EE, A,E, | A,E, EE, A,E, | B,E, EE, B,E, | B,E, EE, B,E, | %148
 CE, EE, CE, | CE, EE, CE, | B,E, EE, B,E, | B,E, EE, B,E, | E,6- | E,6- | E,6- | E,6 |] %156
V:2
 z6 | z6 | z6 | z6 |!p! A,,6 | B,,6- | B,,6 | A,,2 B,,2 C,2 | B,,2 A,,2 B,,2 | C,6 | B,,6- | B,,6 | %12
 A,,6 | C,6 | B,,6- | B,,6 | A,,4 C,2 | B,,2 A,,2 B,,2 | C,6 | B,,6- | B,,6 | A,,4 C,2 | %22
 B,,2 A,,2 B,,2 | C,6 | D,6 | E,6 |!p! A,,6 | B,,6- | B,,6 | A,,2 B,,2 C,2 | B,,2 A,,2 B,,2 | C,6 | %32
 B,,6- | B,,6 |!p! A,,6 | B,,6- | B,,6 | A,,2 B,,2 C,2 | B,,2 A,,2 B,,2 | C,6 | B,,6- | B,,6 | %42
!p!!p! A,,6 | C,6 | B,,6- | B,,6 | A,,2 z2 C,2 | B,,2 A,,2 B,,2 | C,6 | B,,6- | B,,6 | %51
 A,,2 B,,2 C,2 | B,,2 A,,2 B,,2 | C,6 | D,6 | z E, z E, z E, | z E, z E, z E, | E,2 E,2 E,2 | %58
 E,2 E,2 E,2 | E,2 E,2 E,2 | E,2 E,2 E,2 | E,2 E,2 E,2 | E,2 E,2 E,2 | E,2 E,2 E,2 | E,2 E,2 E,2 | %65
 E,2 E,2 E,2 | E,2 E,2 E,2 | E,2 E,2 E,2 | E,2 E,2 E,2 | E,2 E,2 E,2 | E,2 E,2 E,2 | E,2 E,2 E,2 | %72
 E,2 E,2 E,2 | E,2 E,2 E,2 | E,2 E,2 E,2 | z6 | z6 | z6 | z6 | z6 | A,,2 E,4 | A,,2 E,4 | %82
 B,,2 E,4 | B,,2 E,4 | C,2 E,4 | C,2 E,4 | D,2 E,4 | D,2 E,2 B,,2 | A,,2 E,4 | A,,2 E,4 | %90
 B,,2 E,4 | B,,2 E,4 | C,2 E,4 | C,2 E,4 | D,2 E,4 | D,2 E,2 B,,2 | z2 E2 z2 | z2 E2 z2 | %98
 z2 E2 z2 | z2 E2 z2 | z2 E2 z2 | z2 E2 z2 | A,E, C,E, F,C, | A,E, C,E, F,C, | B,E, D,E, G,D, | %105
 B,E, D,E, G,D, | CA, E,C, E,C, | CA, E,C, E,C, | G,,D, E,G,, D,E, | G,,D, E,G,, D,B,, | %110
 C,D, F,E, (D,/E,/F,/E,/) | D,E, A,F, (F,/G,/A,/B,/) | CB, G,A, (B,/G,/A,/G,/) | %113
 A,B, DA, (A,/B,/D/B,/) | CB, CD (C/B,/C/A,/) | B,C A,B, (B,/C/B,/C/) | A,C B,C (C/B,/C/D/) | %117
 EC DC (D/C/B,/A,/) | z6 | z6 | z6 | z6 | z6 | z6 | z6 | z6 | z6 | z6 |!p! F,,E, E,F,, E,E, | %129
 F,,E, E,F,, E,E, | G,,E, E,G,, E,E, | G,,E, E,G,, E,E, | A,,E, E,A,, E,E, | A,,E, E,A,, E,E, | %134
 G,,E, E,G,, E,E, | G,,E, E,G,, E,E, | F,E EF, EE | F,E EF, EE | G,E EG, EE | G,E EG, EE | %140
 A,E EA, EE | A,E EA, EE | G,E EG, EE | DE EG, EE | F,E EF, EE | F,E EF, EE | G,E EG, EE | %147
 G,E EG, EE | A,E EA, EE | A,E EA, EE | G,E EG, EE | G,E EG, EE | C6- | C6- | C6- | C6 |] %156
V:3
!mp! E,2 E,2 E,2 | E,2 E,2 E,2 | E,2 E,2 E,2 | E,2 E,2 E,2 | E,2 E,2 E,2 | E,2 E,2 E,2 | %6
 E,2 E,2 E,2 | E,2 E,2 E,2 | E,2 E,2 E,2 | E,2 E,2 E,2 | E,2 E,2 E,2 | E,2 E,2 E,2 | E,2 E,2 E,2 | %13
 E,2 E,2 E,2 | E,2 E,2 E,2 | E,2 E,2 E,2 | E,2 E,2 E,2 | E,2 E,2 E,2 | E,2 E,2 E,2 | E,2 E,2 E,2 | %20
 E,2 E,2 E,2 | E,2 E,2 E,2 | E,2 E,2 E,2 | E,2 E,2 E,2 | E,2 E,2 E,2 | E,2 E,2 E,2 | A,,6 | %27
 B,,2- B,,4- | B,,4- B,,2 | A,,2 B,,2 C,2 | B,,2 A,,2 B,,2 | C,2- C,4 | B,,4- B,,2- | B,,6 | %34
!p! A,,6 | B,,6- | B,,6 | A,,2 B,,2 C,2 | B,,2 A,,2 B,,2 | C,2- C,4 | B,,4- B,,2- | B,,6 | %42
!p! A,,6 | C,2- C,4 | B,,4- B,,2- | B,,6 | A,,2 z2 C,2 | B,,2 A,,2 B,,2 | C,4- C,2 | B,,6- | B,,6 | %51
 A,,2 B,,2 C,2 | B,,2 A,,2 B,,2 | C,6 | D,6 | E,6- | E,6- | E,6- | E,6 | F,6- | F,6 | G,6- | G,6 | %63
 A,6- | A,6 | G,6- | G,4 z2 | F,6- | F,6 | G,6- | G,6 | A,6- | A,6 | G,6- | G,6 | %75
!mp! (A,/C/E/) z/ (A,/C/E/) z/ (A,/C/E/) z/ | (B,/D/E/) z/ (B,/D/E/) z/ (B,/D/E/) z/ | %77
 (B,/D/E/) z/ (B,/D/E/) z/ (B,/D/E/) z/ | (A,/C/E/) z/ (G,/B,/E/) z/ (A,/C/E/) z/ | %79
 (B,/D/E/) z/ (A,/C/E/) z/ (G,/B,/E/) z/ | F,E CF, EC | F,E CF, EC | G,E DG, ED | G,E DG, ED | %84
 A,E CA, EC | A,E CA, EC | G,D EG, DE | G,D EG, DA, | F,6- | F,2- F,4 | G,4- G,2- | G,6 | A,6- | %93
 A,2- A,4 | G,4- G,2- | G,6 | F,2 z4 | F,2 z4 | G,2 z4 | G,2 z4 | A,2 z4 | A,2 z4 | F,2 z4 | %103
 F,2 z4 | G,2 z4 | G,2 z4 | A,2 z4 | A,2 z4 | G,2 z4 | G,2 z4 | A,,2 E,4 | A,,2 E,4 | B,,2 E,4 | %113
 B,,2 E,4 | C,2 E,4 | C,2 E,4 | D,2 E,4 | D,2 E,2 B,,2 | A,,2 E,4 | A,,2 E,4 | B,,2 E,4 | %121
 B,,2 E,4 | C,2 E,4 | C,2 E,4 | D,2 E,4 | D,2 E,2 B,,2 | E,2 E,2 E,2 | E,2 E,2 E,2 | A,,2 E,4 | %129
 A,,2 E,4 | B,,2 E,4 | B,,2 E,4 | C,2 E,4 | C,2 E,4 | D,2 E,4 | D,2 E,2 B,,2 | A,,2 E,4 | %137
 A,,2 E,4 | B,,2 E,4 | B,,2 E,4 | C,2 E,4 | C,2 E,4 | D,2 E,4 | D,2 E,2 B,,2 | A,,2 E,4 | %145
 A,,2 E,4 | B,,2 E,4 | B,,2 E,4 | C,2 E,4 | C,2 E,4 | D,2 E,4 | D,2 E,2 B,,2 | E,2 E,2 E,2 | %153
 E,2 E,2 E,2 | E,2 E,2 E,2 | E,2 E,2 E,2 |] %156
V:4
!mp! A,,6- | A,,6 | A,,6- | A,,6 | A,,6 | B,,6- | B,,6 | A,,2 B,,2 C,2 | B,,2 A,,2 B,,2 | C,6 | %10
 B,,6- | B,,6 | A,,6 | C,6 | B,,6- | B,,6 | A,,6- | A,,6 | C,6 | B,,6- | B,,6 | A,,6- | A,,6 | %23
 C,6 | D,6 | E,6 | E,2 E,2 E,2 | E,2 E,2 E,2 | E,2 E,2 E,2 | E,2 E,2 E,2 | E,2 E,2 E,2 | %31
 E,2 E,2 E,2 | E,2 E,2 E,2 | E,2 E,2 E,2 |!p! E,E, E,E, E,E, | E,E, E,E, E,E, | E,E, E,E, E,E, | %37
 E,E, E,E, E,E, | E,E, E,E, E,E, | E,E, E,E, E,E, | E,E, E,E, E,E, | E,E, E,E, E,E, | %42
!p! E,E, E,E, E,E, | E,E, E,E, E,E, | E,E, E,E, E,E, | E,E, E,E, E,E, | E,E, E,E, E,E, | %47
 E,E, E,E, E,E, | E,E, E,E, E,E, | E,E, E,E, E,E, | E,E, E,E, E,E, | E,E, E,E, E,E, | %52
 E,E, E,E, E,E, | E,E, E,E, E,E, | E,E, E,E, E,E, | E,6- | E,6- | E,6- | E,6 | F,,6- | F,,6 | %61
 G,,6- | G,,6 | A,,6- | A,,6 | G,,6- | G,,4 z2 | F,,6- | F,,6 | G,,6- | G,,6 | A,,6- | A,,6 | %73
 G,,6- | G,,6 | A,,6 | B,,6- | B,,6 | A,,2 G,,2 A,,2 | B,,2 A,,2 G,,2 | F,,6- | F,,6 | G,,6- | %83
 G,,6 | A,,6- | A,,6 | G,,6- | G,,6 | F,,E, C,F,, E,C, | F,,E, C,F,, E,C, | G,,E, D,G,, E,D, | %91
 G,,E, D,G,, E,D, | A,,E, C,A,, E,C, | A,,E, C,A,, E,C, | G,,D, E,G,, D,E, | G,,D, E,G,, D,B,, | %96
 F,,6- | F,,6 | G,,6- | G,,6 | A,,6- | A,,6 | F,,6- | F,,6 | G,,6- | G,,6 | A,,6- | A,,6 | G,,6- | %109
 G,,6 | F,,6- | F,,6 | G,,6- | G,,6 | A,,6- | A,,6 | G,,6- | G,,6 | F,,6- | F,,6 | G,,6- | G,,6 | %122
 A,,6- | A,,6 | G,,6- | G,,6 | E,,6- | E,,6 | F,,6- | F,,6 | G,,6- | G,,6 | A,,6- | A,,6 | G,,6- | %135
 G,,6 | F,,6- | F,,6 | G,,6- | G,,6 | A,,6- | A,,6 | G,,6- | G,,6 | F,,6- | F,,6 | G,,6- | G,,6 | %148
 A,,6- | A,,6 | G,,6- | G,,6 | A,,6- | A,,6- | A,,6- | A,,6 |] %156

